X:1
T:Trio Sonata No.6 in E-Dur from "12 Trio Sonatas Op.4 "
T:Trio Sonata No.6 in E-Dur 
T:from " 12 Trio Sonatas Op.4 " Transcribed for 2 Recorders and B/C  in B-Dur from IMSLP#299301 PDF File
T:Arcangelo Corelli (1653 — 1713) Arr. by : Hans Sitt (1850–1922) Paul Klengel (1854-1935)
T:Public Domain
T:Public Domain
T:Public Domain
T:Public Domain
T:Public Domain
C:Arcangelo Corelli (1653 — 1713)
Z:Public Domain
%%score [ 1 2 3 ] { ( 4 5 8 ) | ( 6 7 ) }
L:1/8
Q:1/4=60
M:4/4
K:Bb
V:1 treble nm="Alto Recorder" snm="A. Rec."
V:2 treble nm="Tenor Recorder" snm="T. Rec."
V:3 bass nm="Viola da gamba" snm="Vla. d. g."
V:4 treble nm="Harpsichord" snm="Hch."
V:5 treble 
V:8 treble 
V:6 bass 
V:7 bass 
V:1
"^Adagio""^1. Preludio."!mf! f3 f fc f2- | fB e2- ed/c/ d2- | dGcB AF B2- | B2 A2"_cresc." Bd (g2 | %4
 g)c f4 =e2 |!f! f8 || %6
[M:3/4][Q:1/4=120]"^Allegro"!f! !tenuto!b!tenuto!f!tenuto!b!tenuto!d'!tenuto!c'!tenuto!f' | %7
 d'f'd'baf | b2 (.f2 .c2) | dfbdca | B4 z2 | dfbd'f'd' | c'4 z2 | bd'gb=ec' | a4 z2 | %15
!mf! f'd'bd'gb | (=e3 .c') f'c' |"_cresc." (d'3 .d') g'd' | (=e'3 .e') f'a | (d'g) g2 g2 | %20
!f! afac'f'c' | a4 z2 | bBdfbf | d4 z2 | (be)gb (c'2- | c'fa)c' d'2- | d'b (e'3 c') | %27
 (f'3 d') bd' | g4 !fermata!z2 ||[K:Bb][M:3/2][Q:1/2=60]"^Adagio"!<(! z4!<)!!>(! g8-!>)! | %30
 g4 f4 _a4 | _d4 _d'8- |"_cresc." d'4 c'4 b4 |!<(! _a4 b4 c'4-!<)! | c'4 b4 (_a2 g2) | %35
!>(! _a4 g8!>)! ||[M:3/4][Q:1/4=120]"^Allegro"!f! fcfagc' | a2 z4 | bfbd'c'f' | d'4 z2 | gdgbad' | %41
 b4 z2 | d'be'd' e'2- | e'ad'c' d'2- | d'gc'b c'2 | d'3 d' (e'd') | (c'b) a4 |!mf! bd'bd'ad' | %48
 b4 z2 | gc'gc'gc' | =a4 z2 |!p! fbfbfb | gegc'gc' | afad'ad' | bgbe'be' | c'ac'f'c'f' | %56
 d'bd'g'd'g' | c'f'c'f'c'f' | be'be'be' |!f! (a3 f) b2- | b2 (b3 a) | b4 f2- | f2 =e4 | f4 z2 || %64
[M:3/2][Q:1/2=60]"^Adagio" z4!p! c'8- | c'4 b4 _d'4 | _g12- |"_cresc." g4 f4 e4 | _d4 e4!f! f4- | %69
 f4 e4 (_d2 c2) | _d4 c8 | B8 f4- |"_dim." f4 e8 |!p! !fermata!f12 || %74
[M:4/4][Q:1/4=120]"^Allegro.""^2. Allemanda" (b3 z/ c'/) !tenuto!d'>.d'(c'>b) | %75
 (a3 z/ b/) !tenuto!c'>.c'(!tenuto!b>.a) | (d'3 z/ e'/) !tenuto!f'>.f'(!tenuto!e'>.d') | %77
 (c'3 z/ a/) !tenuto!b>.b!tenuto!c'>.c' | f2 b4 a2 | d2 (!tenuto!g>.f) =e3 z/ c'/ | %80
 (c'>.f)(b>.b) (b>.b) a>g | a2 g2 f4 :: (c'3 z/ b/) !tenuto!a>.f(g>a) | %83
 (b3 z/ .a/) !tenuto!g>.g(!tenuto!a>.b) | (c'3 z/ .b/) !tenuto!a>.a(!tenuto!b>.c') | %85
 (d'3 z/ .c'/) !tenuto!b>.b!tenuto!a>.g | g2 ^f2 g4 | (f3 z/ e/) !tenuto!d>.=e(!tenuto!f>.f) | %88
 f3 =e!>(! (f4-!>)! |!mf! f>.g)!tenuto!_a>.a a2 (g2- | g>.a)"_cresc."!tenuto!b>.b b2 ((a2 | %91
 a>)b)!tenuto!c'>.c' (c'2 b2) | (!tenuto!e'>.d')(!tenuto!c'>.b) (!tenuto!b>.f)(!tenuto!b>.b) | %93
 (!tenuto!b3 !tenuto!a) !tenuto!b2 f2- |!p! f>g_a>a a2 g2- | g>ab>b"_cresc." b2 a2- | %96
 a>bc'>c' c'2 b2 |!f! e'>d'c'>b a>fb>b | b3 a b4 :| z/8 | %100
[M:12/8][Q:3/8=120]"^Allegro.""^3. Giga." f3 z2 f (fd)e (fd)f | e3 z2 e (ec)d ((ec))e | %102
 d3 z2 d (dB)c (dB)d | c3 f3- fed e3- | e(dc) e-ed (cd)e c3 | B3 z z d (ed)e (cf)c | %106
 (df)d (cf)c (Bc)d (cd)B | (AB)c (cd)c (cF)B (Bc)B | BcB Acf d=ef Gfe | F3 (f3- fed) (e3- | %110
 edc) (d3- ded) (cd)B | (AG)F B2 .B (B3- B2 A) | B3 G3 G3 B3- | B3 A3 B6 :: %114
!mf! (ag)a (d'c')d' (ba)g (ba)g | (ag)a (e'c')d' b6 | (gf)g (c'b)c' (ag)f (ag)f | %117
 (gf)g (c'b)c' a6 | (c'b)c' (d'c')e' =e3 f3- | f3 =e3 f6 | (d'c')d' (e'd')e' ^f3 g3 | %121
 g3 ^f3 ((ga))b (ga)b |!f! b6 (_afg) (afg) | _a6 (gef) (gef) | (f3- f2 .e) (def) (def) | %125
 c3 f6 e3- | e3 d3 (c3- c2 f) |!p! (def) (def) c3 f3- |!<(! f3 e6!<)!!f! d3 | (c3- c2 f) d6 :| %130
V:2
!mf! d3 d2 c2 c | B3 B A3 f | g3 g f3 f | e3 e"_cresc." d3 d | c3 c B4 |!f! A8 ||[M:3/4] z6 | %7
!f! !tenuto!b!tenuto!f!tenuto!b!tenuto!d'!tenuto!c'!tenuto!f' | d'f'd'b af | b2 (.f2 .c2) | %10
 dfbd(ca) | B4 z2 | fcfagf | b4 z2 | c'fac'fa | d4 z2 |!mf! =egc'=e'c'a |"_cresc." fbd'f'd'b | %18
 g3 g c'2 | f2 (f3 =e) |!f! f4 z2 | c'fac'f'c' | d'4 z2 | bBdfbf | (g3 .g) eg | (a3 .a) fa | %26
 (b3 .g) c'2- | c'.a (d'3 .d') | =e4 z2 ||[K:Bb][M:3/2] z12 |!<(! z4!>(! c'8-!<)!!>)! | %31
 c'4 b4 _d'4 |"_cresc." =e4 f4 g4- |!<(! g4 f4 _e4!<)! | d4 =e4 f4- |!>(! f4 f6 =e2!>)! || %36
[M:3/4]!f! f4 z2 | fcfagc' | z6 | bfbd'c'f' | b4 z2 | gdgbad' | (b3 .b) c'b | (a3 .a) ba | %44
 (g3 .g) ag | (^f3 d) (g2 | g2) (g3 ^f) |!mf! g4 z2 | dgdgdg | =e4 z2 | cfcfcf |!p! d2 z f df | %52
 (B2 z .g) eg | (c2 z .a) fa | d2 z b e'b | c'2 z c' ac' | f2 d2 g2 | g2 c2 f2 | f2 B2 e2 | %59
!f! (e3 f) (d2 | g2) (c3 f) | d4 c2- | c2 B4 | A4 z2 ||[M:3/2] z12 | z4!p! f8- | f4 e4 _g4 | %67
"_cresc." A4 B4 c4- | c4 B4!f! _A4 | G4 =A4 B4- | B4 (B6 A2) | B8 c4- |"_dim." c4 B8 | %73
!p! !fermata!A12 ||[M:4/4] z8 | (f3 z/ g/) !tenuto!a>.a(!tenuto!g>.f) | b4 (b3 z/ .b/) | %77
 a2 f4 e2- | e2 d2 c2 (c'2- | c'>.f)(!tenuto!b>.b) b3 z/ a/ | (a>.d) (g>.f) (=e>.c) f>f | %81
 f3 =e f4 :: z8 | (f3 z/ .f/) B4 | (g3 z/ .g/) c4 | (a3 z/ .a/) !tenuto!d>.d'!tenuto!c'>.b | %86
 b2 a2 g4 | c'4 (f3 z/ c'/) | b4!>(! a4!>)! |!mf! f4 B4 | g4"_cresc." c4 | g4 c4 | %92
 (!tenuto!g>.f)(!tenuto!e>.e) e2 !tenuto!d!tenuto!c | d2 (!tenuto!c>.f) d4 |!p! f4 B4 | %95
 g4"_cresc." c4 | a4 d4 |!f! g>fe>e e2 dc | d2 c>f d4 :| z/8 |[M:12/8] d3 z2 d (dB)c (dB)d | %101
 c3 z2 c (cA)B (cA)c | B3 z2 B (BG)A (BG)B | A3 z2 A (BA)B (cB)c | F3 B6 A3 | B3 z z B c3 c3 | %106
 F3 z2 F G3 G3 | C3 z2 c F3 z2 d | (=E3 z2 F) (FG)F E2 c | A3 z2 z B3- BAG | A3- AGF G3 e3- | %111
 e3 d3 c6 | B3 z2 c (c3 z2 f) | efd c2 f d6 ::!mf! d'6 !trill(!Td'6- | !trill)!d'12 | %116
 c'6 !trill(!Tc'6- | !trill)!c'12 | f3 b6 a3 | g6 f6 | g3 c'6 b3 | a6 g6 |!f! g3 =e3 c6 | %123
 f3 d3 B6 | (!tenuto!c'3 !tenuto!a3) f6 | (fga) (fga) (Bcd) (efg) | B3 B6 A3 |!p! B6 (fga) fga | %128
!<(! (Bcd) (efg)!<)! A3!f! B3- | B3 A3 B6 :| %130
V:3
!mf! B,B,B,B, A,A,A,D | G, G, G,G, F,F,F,B,, | E,E,EE EEDD | CCF,F,"_cresc." B,B,B,B, | %4
 A,A,A,A, G,2 C,2 |!f! F,8 ||[M:3/4] .B,2 z4 | z6 | .B,.F,.B,.D.C.F | .D2 .D,2 .F,2 | %10
 .B,2 .D,2 .F,2 | B,,4 .B,2 | A,4 (A,2 | G,4) C2 | F,4!mf! (A,2 | B,4) .B,2 | C4 .A,2 | %17
"_cresc." B,4 .B,2 | C4 .A,2 | B,2 C2 C,2 |!f! F,6 | F,6 | B,6 | B,6 | E,4 E,2 | F,4 F,2 | %26
 G,4 A,2- | A,2 B,4 | C4 z2 ||[K:Bb][M:3/2] C8 B,4 | _A,8 A,4 | B,8 B,4 |"_cresc." C8 =E,4 | %33
!<(! F,8 =A,4!<)! | B,4 C4 _D4 |!>(! B,4 C8!>)! ||[M:3/4]!f! F,4 z2 | .F,2 .F2 .E2 | %38
 .D2 .D,2 .F,2 | .B,,2 .B,2 .A,2 | .G,2 .B,2 .D2 | .G2 .B,2 .D2 | .G,2 .G2 .E2 | .F2 .F,2 .F2 | %44
 .E2 .E,2 .E2 | D3 B, C2 | .G,2 .D2 .D,2 |!mf! .G,2 (G2 ^F2 | G2) .B,2 .G,2 | .C2 (=E2 C2 | %50
 F2) .A,2 .F,2 | B,2 D,2 D,2 | E,2 E,2 E,2 | F,2 F,2 F,2 | G,2 G,2 G,2 | A,2 A,2 A,2 | %56
 B,2 B,2 (B,2 | A,2) A,2 (D2 | G,2) G,2 (C2 |!f! F,4) G,2 | E,2 F,4 | B,4 A,2- | A,2 G,4 | %63
 F,4 z2 ||[M:3/2]!p! F,8 E,4 | _D,8 D,4 | E,8 E,4 |"_cresc." F,8 A,4 | B,8 =D,4 | %69
!mf! E,4 F,4 _G,4 | E,4 F,8 | B,8 _A,4- |"_dim." A,4 _G,8 |!p! !fermata!F12 ||[M:4/4] z8 | z8 | %76
 B,3 z/ C/ D>D D>B, | F3 z/ F,/ G,2 A,2 | B,4 F,4 | B,2 B,,2 C,3 z/ A,/ | B,3 z/ B,/ C2 F,2 | %81
 C2 C,2 F,4 :: z4 F,3 z/ E,/ | D,>B,,C,>D, E,4 | =E,4 F,4 | ^F,4 G,4 | D,4 E,4 | A,4 B,2 A,2 | %88
 G,2 C2!>(! F,2 E,2!>)! |!mf! D,4 E,4 | =E,4"_cresc." F,4 | ^F,4 G,4 | E,3 E,2 F,2 B, | F,4 B,4 | %94
!p! D,4 E,4 | E,4"_cresc." F,4 | ^F,4 G,4 |!f! E,3 E, F,2 B,2 | F,4 B,,4 :| z/8 | %100
[M:12/8] B,3 z2 B, B,3 B,,3 | C,3 z2 C C3 C,3 | D,3 z2 D D3 E3 | F3 z2 F, (G,3 A,3 | %104
 B,3) (D3 E3) .F3 | .B,3 (B6 A3 | B3) (F6 =E3 | F3) .A,3 .D3 .G,3 | C3 F,3 B,3 C3 | F,3 D3 G3 C3 | %110
 F3 B,3 E3 E,3 | F,3 G,3 E,3 F,3 | B,3 E,6 D,3 | E,3 F,3 B,6 ::!p! =G3 D3 A3 G,3 | %115
 ^F,3 D,3 G,3 G3 | =E3 C3 F3 F,3 | =E,3 C,3 F,3 F3 | A,3 B,3 C3 F,3 | C,6 F,6 | B,3 C3 D3 G,3 | %121
 D,6 G,6 |!f! (=E3 C3) F6 | (D3 B,3) E6 | (A,3 F,3) B,6 | A,3 D3 G,3 C3 | F,3 B,3 E,3 F,3 | %127
!p! B,,3 B,3 _A,3 D3 |!<(! _G,3 C3!<)! F,3!f! B,3 | E,3 F,3 B,6 :| %130
V:4
 [FBd]4 (c2 f2- | f2 e4 d2- | d2) (g2 f4 | e4 d2) ([G-dg-]2 | [Gg]2 [Ff]4) [Gc=e]2 | f8 || %6
[M:3/4] z2 .[Bdf]2 .[Acf]2 | .[Bdf]2 .[FBd]2 .[FAc]2 | .B2 .f.b .a2 | .[Bfb]2 z2 .[Acf]2 | %10
 [Fd]2 .[Bf]2 .[Ac]2 | [FBd]4 .[Bd]2 | (c2 f2-) ((f2 | f2) d2) .=e2 | f4 (f2- | f2 b2) g2 | %16
 =e4 [cf]2 | [Fd]4 [Gdg]2 | .[=EGc]2 [Gc=e]2 .[Fcf]2 | f2 (f3 =e) | [Acf]4 z2 | %21
 z2 .[Acf]2 .[FAc]2 | .[FBd]2 .B2 .d2 | z2 .[dfb]2 .[Bdf]2 | .[Beg]2 .e2 .[cgc']2 | %25
 .[cfa]2 .f2 .[dad']2 | (.[dgb]2 B2 c2- | c2 d2) d2 | [c=eg]4 !fermata!z2 || %29
[K:Bb][M:3/2] !tenuto![EGc]2 !tenuto![EGc]2 [EGc]2 !tenuto![EGc]2 [DGd]2 !tenuto![CGd]2 | %30
 [CGc]2 !tenuto![CGc]2 [C_Ac]2 [FAc]2 [Fcf]2 [Fce]2 | [Fc_d]2 [Fcd]2 [FBd]2 [FBd]2 [Fdf]2 [Bdf]2 | %32
 [B_d=e]2 [Bde]2 !tenuto![_Acf]2 [Acf]2 !tenuto![Gcg-]2 [cgb]2 | %33
 !tenuto![cg_a]2 !tenuto![cga]2 !tenuto![cfb]2 [cfb]2 [c_ec']2 [Ece]2 | %34
 [Ec=d]2 [cd]2 !tenuto![B=e]2 [Be]2 [_Af]2 [Bf]2 | %35
 !tenuto![_Af]2 .[_df]2 [Bf]2 [Gf]2 [Gcf]2 [Gc=e]2 ||[M:3/4] .[=Acf]2 .[cfa]2 .[B=eg]2 | %37
 .[Acf]2 z2 .[cg]2 | .[dfb]2 .[df]2 .[Ae]2 | .[Bd]2 z2 .[cf]2 | .[Bg]2 .d2 .[Ad^f]2 | %41
 .[Bdg]2 z2 .[d^fa]2 | .[db]2 .e2 .[cgc']2 | a4 b2 | g4 a2 | [d^fa]3 [dgb] [eg]2 | %46
 z2!>(! (g3 ^f)!>)! | .[Bdg]2 (b2 a2 | b2) g2 b2 | =e2 g4- | g2 f2 a2 | .f2 B4- | (B2 c4- | %53
 c2 d4) | d2 e4- | e2 f4 | f2 g2 g2 | (c'2 f4) | (b2 e4) | [Aea]4 .[Bdb]2 | .[Bcg]2 [Fc]4 | %61
 [FBd]4 [Fcf]2- | .[Fcf]2 [=eb]4 | [cfa]4 z2 || %64
[M:3/2] (!tenuto![_Acf]2 !tenuto![Acf]2 !tenuto![Acf]2 !tenuto![Acf]2 !tenuto![=Gc=g]2 !tenuto![Gcg]2) | %65
 (!tenuto![Fcf]2 !tenuto![Fcf]2 !tenuto![FBf]2 !tenuto![FBf]2 !tenuto![_A_df]2 !tenuto![Adf]2) | %66
 (!tenuto![_G_df]2 !tenuto![Gdf]2 !tenuto![Gce]2 !tenuto![Gce]2 !tenuto![Be_g]2 !tenuto![Beg]2) | %67
 (!tenuto![Ae_g]2 !tenuto![Aeg]2 !tenuto![B_df]2 !tenuto![Bdf]2 !tenuto![Fce]2 !tenuto![Fce]2) | %68
 !tenuto![Fc_d]2!<(! !tenuto![cd]2 !tenuto![Bce]2 !tenuto![Bce]2 !tenuto![_Af]2!<)! !tenuto![ABf]2 | %69
 (!tenuto![=GBf]2 !tenuto![G_df]2 !tenuto![=Ace]2 !tenuto![Ace]2 !tenuto![Bd]2 !tenuto![EBc]2) | %70
 (!tenuto![_GB_d]2 !tenuto![Bd]2 !tenuto![EBc]2 !tenuto![CBc]2 !tenuto![FBc]2 !tenuto![EAc]2) | %71
 (!tenuto![_DFB]2 !tenuto![D-FB]2 !tenuto![DFB]2 !tenuto![DFB]2 !tenuto![Fcf]2 !tenuto![Fcf]2 | %72
 (!tenuto![Fcf]2) !tenuto![Fcf]2 [Be]2 !tenuto![EBe]2 !tenuto![EBc]2 !tenuto![EBc]2) | %73
 !fermata![F=Ac]12 ||[M:4/4] z8 | z8 | [FBd]3 z/ e/ f>fe>d | c2 f4 e2- | e2 (d2 c2) f2 | %79
 d2 g>f =e3 z/ f/ | (d2 g2) =e2 f2 | f3 =e [Acf]4 :: z4 [Acf]3 z/ [cfa]/ | [fb]>d _e>f g2 z2 | %84
 (c>GA>B A2 _E2) | D>AB>c B2 d2 | d2 ^f2 g>eB>g | =f7/2 e/ d2 c>f | f3 =e f>Ac>F | B4- B>de>e | %90
 c4- c>=e f>_e | d4- d>^f g2 | [Gg]3 [Gce] [=Ace]2 ([Bd][ce] | [df]2 [ce]2) [FBd]4 | B4- B>de>d | %95
 (c4- c>=e)f>_e | (d4- d>^f) g2 | [Gg]3 [Gce] [Ace]2 de | f g2 a b4 :| z/8 | %100
[M:12/8] [DFB]3 z2 F [DFB]3 [FBd]3 | [FAe]3 z2 F [FAc]3 [FAe]3 | [FBd]3 z2 f [Bfb]3 [Bg]3 | %103
 [Ac]3 z2 f (f6 | f3) b6 [fa]3 | [dfb]3 (d3 e3 f3- | [df]3) ([ca]3 [eb]3 [cgc']3 | %107
 [cfa]3)!<(! [cf]6 [dfb]3 | [B=e]3!<)! [Acf]3 [Gdf]3 [Gce]3 | [Acf]3 (f3 b6 | a6 g3) [gb]3 | %111
 [cfa]3 [Bdb]3 ((([gb]3 [fb]2)) a) | [dfb]3 [Beg]3 [Acf]3 (fed) | c6 [FBd]6 :: (d3 ^f3) d3 [dg]3 | %115
 [Ada]3 [^fad']3 [dgb]6 | (c3 =e3) c3 [cf]3 | [Gcg]3 [=egc']3 [cfa]6 | %118
 [cfc']3 [dfb]3 [GB=e]3 [Ac-f-]3 | f3 =e3 [cf]6 | [dgd']3 [_egc']3 [Ad^f]3 [Bd-g-]3 | g3 ^f3 g6 | %122
 (g3 [=eb]3) [f_a]6 | (f3 [d_a]3) [eg]6 | (c'3 a3) f6 | (c3 f6 e3- | e3) d3 c6 | %127
 [FBd]3 d3 (c3 f3- | f3 e6) [Bd]3 | [Bcg]3 [Acg]3 [FBd]6 :| %130
V:5
 x4 [Fc]4 | B4 A4 | G2 .cB [Ac]2 [FB-]2 | [GB]2 [FA]2 [FB]2 x2 | c4 B2 x2 | [Ac]8 ||[M:3/4] x6 | %7
 x6 | x2 (.d2 .e2) | x6 | x6 | x6 | [Fc]4 (c2 | B4) B2 | A4 c2 | d4 d2 | c2 G2 F2 | .c2 B2 x2 | %18
 x6 | .G2 [Gc]4 | x6 | x6 | x6 | x6 | x6 | x6 | x2 (e4 | f4) [gb]2 | x6 ||[K:Bb][M:3/2] x12 | x12 | %31
 x12 | x12 | x12 | x12 | x12 ||[M:3/4] x6 | x6 | x6 | x6 | x6 | x6 | x6 | c2 d4 | d2 c4 | x6 | %46
 x2 [Ad]4 | x2 d4- | d2 d2 d2 | c2 (c2 B2 | A2) c2 c2 | d2 B2 F2 | B2 x4 | c2 x4 | B6 | c6 | %56
 d4 (d2 | c4) c2 | B4 B2 | x6 | x2 (B3 A) | x6 | x2 (B2 c2) | x6 ||[M:3/2] x12 | x12 | x12 | x12 | %68
 x12 | x12 | x12 | x12 | x4 B2 x6 | x12 ||[M:4/4] x8 | x8 | x7/2 B/ B3 x/ B/ | %77
 A2 z3/2 A/ B2 [Fc]2- | [Fc]2 [FB]4 [Ac]2 | c2 [Gd]2 [Gc]3 x/ c/ | x2 G2 x4 | A2 G2 x4 :: x8 | %83
 B3/2 z/ B4 x2 | C4- C2 x2 | D4- D2 D2 | [GB]2 [Ad]2 [GB]2 x2 | [=Fc]4 [FB]2 F2 | [GB]4 [FA] x3 | %89
 B2 _A2- A>FG>B | c2 B2- B>G =A>c | (d2 c2 c>)A B>d | (B2 c) x5 | B F3 x4 | B2 _A2- A>FG>B | %95
 c2 B2- B>G=A>c | d2 c2- c>AB>d | (B2 c) x z2 Bc | d2 [ce]2 [Bd]4 :| x/4 |[M:12/8] x12 | x12 | %102
 x12 | z4 x A (B3 c3 | d3) (B3 c3) c3 | x3 d3 c6 | x12 | x12 | x12 | x3 f6 e3- | e3 d6 c3 | x6 c6 | %112
 x9 [FB]3 | (([FB]3 [FA]3)) x6 :: A6 B3 B3 | x12 | G6 A3 A3 | x12 | x12 | [Bc]6 A6 | x12 | %121
 [cd]6 [Bd]6 | c6 c6 | B6 B6 | [cf]6 d6 | c6 B6 | A3 [FB]3 (([GB]3 [FA]3)) | x6 c6 | B6 A3 F3 | %129
 x12 :| %130
V:6
 (B,,B,)B,B, A,A,(A,D,) | G,,G,G,G, F,F,(F,B,,) | (E,,E,)E,E, E,E,D,D, | C,C,F,F, .B,,.B,.B,B, | %4
 A,,A,A,A, G,2 C,2 | F,8 ||[M:3/4]!f! [B,,B,]2 z2 z2 | z6 | .B,.F,B,.D.C.F | .D2 .D,2 .F,2 | %10
 .B,2 .D,2 .F,2 | B,,4 .B,2 | A,4 (.A,2 | G,4) .C2 | F,4 (A,2 | B,4) .B,2 | C4 .=A,2 | B,4 .B,2 | %18
 C4 .A,2 | .B,2 .C2 .C,2 | [F,,F,]6 | [F,,F,]6 | [B,,B,]6 | [B,,B,]6 | E,4 .E,2 | F,4 .[F,,F,]2 | %26
 [G,,G,]4 ([G,,A,-]2 | [A,,A,]2) [B,,B,]4 | [C,C]4 !fermata!z2 ||[K:Bb][M:3/2] [C,C]8 [B,,B,]4 | %30
 [_A,,_A,]8 [A,,A,]4 | [B,,B,]8 [B,,B,]4 | [C,C]8 [=E,,=E,]4 | [F,,F,]8 [=A,,=A,]4 | %34
 [B,,B,]4 [C,C]4 [_D,_D]4 | [B,,B,]4 [C,C]8 ||[M:3/4] [F,,F,]4 z2 | .F,2 .F2 .E2 | .D2 .D,2 .F,2 | %39
 .B,,2 .B,2 .A,2 | .G,2 B,2 .D2 | .G2 B,2 .D2 | .G,2 .G2 .E2 | .F2 .F,2 .F2 | .E2 .E,2 .E2 | %45
 D3 B, C2 | .G,2 .D2 .D,2 | .G,2 G2- ^F2 | G2 .B,2 .G,2 | .C2 (=E2 C2 | F2) .=A,2 .F,2 | %51
 B,2 D,2 D,2 | E,2 E,2 E,2 | F,2 F,2 (F,2 | G,2) (G,2 G,2 | A,2 A,2 A,2 | B,2 B,2) (B,2 | %57
 A,2) A,2 (D2 | G,2) G,2 (C2 | F,4) .G,2 | (.E,2 F,4) | [B,,B,]4 [A,,A,]2- | [A,,A,]2 [G,,G,]4 | %63
 [F,,F,]4 z2 ||[M:3/2] F,8 E,4 | _D,8 D,4 | E,8 E,4 | F,8 [A,,A,]4 | [B,,B,]8 [=D,,=D,]4 | %69
 [E,,E,]4 [F,,F,]4 [_G,,_G,]4 | [E,,E,]4 [F,,F,]8 | [B,,B,]8 [_A,,_A,]4- | [A,,A,]4 [_G,,_G,]8 | %73
 !fermata![F,,F,]12 ||[M:4/4] z8 | z8 | [B,,B,]2 z z/ C/ D>DC>B, | F3 F, G,2 A,2 | B,4 F,4 | %79
 B,2 B,,2 C,3 z/ A,/ | B,3 z/ [B,,B,]/ [C,C]2 [F,,F,]2 | [C,C]2 [C,,C,]2 [F,,F,]4 :: %82
 z4 F,3 z/ _E,/ | D,>B,,C,>D, E,4 | =E,4 F,4 | ^F,4 G,4 | D,4 E,4 | [A,,A,]4 [B,,B,]2 [A,,A,]2 | %88
 [G,,G,]2 [C,C]2 [F,,F,]2 [_E,,_E,]2 | [D,,D,]4 [E,,E,]4 | [=E,,=E,]4 [F,,F,]4 | %91
 [^F,,^F,]4 [G,,G,]4 | [_E,,_E,]3 E, F,2 [B,,B,]2 | [F,,F,]4 [B,,B,]4 | [D,,D,]4 [E,,E,]4 | %95
 [=E,,=E,]4 [F,,F,]4 | [^F,,^F,]4 [G,,G,]4 | [_E,,_E,]3 E, F,2 [B,,B,]2 | [F,,F,]4 [B,,,B,,]4 :| %99
 z/8 |[M:12/8] B,3 z2 B, B,3 B,,3 | C,3 z2 C C3 C,3 | D,3 z2 D D3 E3 | F3 z2 F, (G,3 A,3 | %104
 B,3) (D3 E3) .F3 | .B,3 (B6 A3 | B3) (F6 =E3 | G3) .A,3 .D3 .G,3 | C3 F,3 B,3 C3 | F,3 D3 G3 C3 | %110
 F3 B,3 E3 E,3 | F,3 G,3 E,3 F,3 | B,3 E,6 D,3 | E,3 F,3 B,6 :: =G3 D3 A3 G,3 | ^F,3 D,3 G,3 G3 | %116
 =E3 C3 F3 F,3 | =E,3 C,3 F,3 F3 | A,3 B,3 C3 F,3 | C,6 F,6 | B,3 C3 D3 G,3 | D,6 G,6 | %122
 (=E3 C3) F6 | (D3 B,3) _E6 | (=A,3 F,3) B,6 | A,3 D3 G,3 C3 | F,3 B,3 E,3 F,3 | B,,3 B,3 _A,3 D3 | %128
 _G,3 C3 F,3 B,3 | E,3 F,3 B,6 :| %130
V:7
 B,,3 x5 | G,,2 x6 | E,,3 x5 | x4 B,,3 x | A,,3 x5 | F,,8 ||[M:3/4] x6 | x6 | x6 | x6 | x6 | x6 | %12
 x6 | x6 | x6 | x6 | x6 | x6 | x6 | x6 | x6 | x6 | x6 | x6 | x6 | x6 | x6 | x6 | x6 || %29
[K:Bb][M:3/2] x12 | x12 | x12 | x12 | x12 | x12 | x12 ||[M:3/4] x6 | x6 | x6 | x6 | x6 | x6 | x6 | %43
 x6 | x6 | x6 | x6 | x6 | x6 | x6 | x6 | x6 | x6 | x6 | x6 | x6 | x6 | x6 | x6 | x6 | x6 | x6 | %62
 x6 | x6 ||[M:3/2] x12 | x12 | x12 | x12 | x12 | x12 | x12 | x12 | x12 | x12 ||[M:4/4] x8 | x8 | %76
 x8 | x8 | x8 | x8 | x8 | x8 :: x8 | x8 | x8 | x8 | x8 | x8 | x8 | x8 | x8 | x8 | x8 | x8 | x8 | %95
 x8 | x8 | x8 | x8 :| x/4 |[M:12/8] x12 | x12 | x12 | x12 | x12 | x12 | x12 | x12 | x12 | x12 | %110
 x12 | x12 | x12 | x12 :: x12 | x12 | x12 | x12 | x12 | x12 | x12 | x12 | x12 | x12 | x12 | x12 | %126
 x12 | x12 | x12 | x12 :| %130
V:8
 x8 | x8 | x8 | x8 | x8 | x8 ||[M:3/4] x6 | x6 | x6 | x6 | x6 | x6 | x6 | x6 | x6 | x6 | x6 | x6 | %18
 x6 | x6 | x6 | x6 | x6 | x6 | x6 | x6 | x6 | x6 | x6 ||[K:Bb][M:3/2] x12 | x12 | x12 | x12 | x12 | %34
 x12 | x12 ||[M:3/4] x6 | x6 | x6 | x6 | x6 | x6 | x6 | x6 | x6 | x6 | x6 | x6 | x6 | x6 | x6 | %51
 x6 | x6 | x6 | x6 | x6 | x6 | x6 | x6 | x6 | x6 | x6 | x6 | x6 ||[M:3/2] x12 | x12 | x12 | x12 | %68
 x12 | x12 | x12 | x12 | x12 | x12 ||[M:4/4] x8 | x8 | x8 | x8 | x8 | x8 | d4 [Gc]2 [Ac]2 | %81
 c4 x4 :: x8 | x8 | x8 | x8 | x8 | x8 | x8 | x8 | x8 | x8 | x8 | x8 | x8 | x8 | x8 | x8 | x8 :| %99
 x/4 |[M:12/8] x12 | x12 | x12 | x12 | x12 | x12 | x12 | x12 | x12 | x12 | x12 | x12 | x12 | x12 :: %114
 x12 | x12 | x12 | x12 | x12 | x12 | x12 | x12 | x12 | x12 | x12 | x12 | x12 | x12 | x12 | x12 :| %130

